static/images/Vector.svg

<svg width="17" height="15" viewBox="0 0 17 15" fill="none" xmlns="http://www.w3.org/2000/svg">
<path fill-rule="evenodd" clip-rule="evenodd" d="M10.5192 14.9038L4.25355 10.8654H0.423065V4.13459H4.25355L10.5192 0.0961304V14.9038ZM4.46153 4.80161V10.1983L9.84614 13.6694V1.33055L4.46153 4.80161ZM14.0381 1.9619C15.6043 3.30065 16.5769 5.28825 16.5769 7.50065C16.5769 9.71373 15.6043 11.7013 14.0394 13.0394L13.5629 12.5629C15.0006 11.3574 15.9038 9.53334 15.9038 7.49998C15.9038 5.46661 15.0006 3.64257 13.5629 2.43709L14.0381 1.9619ZM12.0666 3.93334C13.0904 4.7794 13.7332 6.06498 13.7332 7.49998C13.7332 8.93498 13.0904 10.2206 12.0666 11.0666L11.5914 10.5914C12.4873 9.87594 13.0601 8.75459 13.0601 7.50132C13.0601 6.24738 12.4873 5.12603 11.5901 4.40988L12.0666 3.93334ZM3.78845 4.80767H1.09614V10.1923H3.78845V4.80767Z" fill="white"/>
</svg>

<?xml version="1.0" encoding="utf-8"?>
<!-- Generator: Adobe Illustrator 26.5.0, SVG Export Plug-In . SVG Version: 6.00 Build 0)  -->
<svg version="1.1" id="Calque_1" xmlns="http://www.w3.org/2000/svg" xmlns:xlink="http://www.w3.org/1999/xlink" x="0px" y="0px"
	 viewBox="0 0 17 15" style="enable-background:new 0 0 17 15;" xml:space="preserve">
<style type="text/css">
	.st0{fill-rule:evenodd;clip-rule:evenodd;fill:#FFFFFF;}
</style>
<path class="st0" d="M10.5,14.9l-6.3-4H0.4V4.1h3.8l6.3-4V14.9z M4.5,4.8v5.4l5.4,3.5V1.3L4.5,4.8z M14,2c1.6,1.3,2.5,3.3,2.5,5.5
	s-1,4.2-2.5,5.5l-0.5-0.5c1.4-1.2,2.3-3,2.3-5.1c0-2-0.9-3.9-2.3-5.1L14,2z M12.1,3.9c1,0.8,1.7,2.1,1.7,3.6s-0.6,2.7-1.7,3.6
	l-0.5-0.5c0.9-0.7,1.5-1.8,1.5-3.1s-0.6-2.4-1.5-3.1L12.1,3.9z M3.8,4.8H1.1v5.4h2.7C3.8,10.2,3.8,4.8,3.8,4.8z"/>
</svg>
